;FLAVOR:Marlin
;TIME:1437
;Filament used: 0.991784m
;Layer height: 0.2
;MINX:100.434
;MINY:87.748
;MINZ:0.3
;MAXX:140.885
;MAXY:143.395
;MAXZ:3.7
;Generated with Cura_SteamEngine 4.10.0
M140 S60
M105
M190 S60
M104 S200
M105
M109 S200
M82 ;absolute extrusion mode
G21 ;metric values
G90 ;absolute positioning
M82 ;set extruder to absolute mode
M107 ;start with the fan off
G28 X0 Y0 ;move X/Y to min endstops
G28 Z0 ;move Z to min endstops
G1 Z15.0 F300.0 ;move the platform down 15mm
G92 E0 ;zero the extruded length
G1 F200 E3 ;extrude 3mm of feed stock
G92 E0 ;zero the extruded length again
G1 F300.0
G0 Y20 F300.0
M117 Printing...
G5
G92 E0
G92 E0
G1 F2400 E-6
;LAYER_COUNT:19
;LAYER:0
M107
M204 S300
G1 F600 Z0.375
G0 F9000 X104.66 Y92.836 Z0.375
M204 S100
;TYPE:SKIRT
G1 F600 Z0.3
G1 F2400 E0
G1 X104.935 Y92.547 E0.02587
G1 X105.818 Y91.709 E0.10483
G1 X106.116 Y91.454 E0.13027
G1 X107.076 Y90.711 E0.209
G1 X107.397 Y90.487 E0.23438
G1 X108.428 Y89.843 E0.31323
G1 X108.777 Y89.649 E0.33912
G1 X109.868 Y89.114 E0.41793
G1 X110.23 Y88.959 E0.44347
G1 X111.372 Y88.536 E0.52246
G1 X111.747 Y88.418 E0.54795
G1 X112.922 Y88.113 E0.62669
G1 X113.312 Y88.033 E0.65251
G1 X114.515 Y87.849 E0.73144
G1 X114.909 Y87.809 E0.75712
G1 X116.122 Y87.748 E0.83589
G1 X116.514 Y87.748 E0.86132
G1 X117.727 Y87.809 E0.94009
G1 X118.12 Y87.849 E0.96571
G1 X119.324 Y88.033 E1.04471
G1 X119.715 Y88.113 E1.07059
G1 X120.89 Y88.418 E1.14932
G1 X121.266 Y88.536 E1.17488
G1 X122.407 Y88.959 E1.25381
G1 X122.767 Y89.114 E1.27923
G1 X123.857 Y89.648 E1.35795
G1 X124.208 Y89.843 E1.38399
G1 X125.24 Y90.488 E1.46292
G1 X125.558 Y90.71 E1.48807
G1 X126.519 Y91.453 E1.56686
G1 X126.819 Y91.709 E1.59244
G1 X127.702 Y92.547 E1.67139
G1 X127.977 Y92.836 E1.69726
G1 X128.769 Y93.759 E1.77614
G1 X129.009 Y94.07 E1.80162
G1 X129.702 Y95.065 E1.88027
G1 X129.912 Y95.401 E1.90596
G1 X130.502 Y96.464 E1.98481
G1 X130.676 Y96.82 E2.01051
G1 X131.155 Y97.937 E2.08934
G1 X131.293 Y98.309 E2.11507
G1 X131.656 Y99.469 E2.19391
G1 X131.753 Y99.845 E2.21909
G1 X131.999 Y101.036 E2.29797
G1 X132.06 Y101.43 E2.32382
G1 X132.183 Y102.639 E2.40264
G1 X132.203 Y103.034 E2.42829
G1 X132.203 Y104.25 E2.50716
G1 X132.183 Y104.645 E2.53281
G1 X132.06 Y105.854 E2.61163
G1 X132 Y106.247 E2.63741
G1 X131.754 Y107.44 E2.71641
G1 X131.656 Y107.817 E2.74168
G1 X131.294 Y108.974 E2.82031
G1 X131.157 Y109.345 E2.84596
G1 X130.678 Y110.463 E2.92484
G1 X130.503 Y110.82 E2.95063
G1 X129.913 Y111.883 E3.02948
G1 X129.647 Y112.3 E3.06156
G1 X129.948 Y112.394 E3.08201
G1 X131.09 Y112.818 E3.16102
G1 X131.446 Y112.97 E3.18612
G1 X132.536 Y113.503 E3.26482
G1 X132.89 Y113.7 E3.29109
G1 X133.922 Y114.345 E3.37002
G1 X134.242 Y114.568 E3.39532
G1 X135.202 Y115.311 E3.47405
G1 X135.498 Y115.565 E3.49935
G1 X136.382 Y116.403 E3.57835
G1 X136.66 Y116.695 E3.6045
G1 X137.451 Y117.618 E3.68334
G1 X137.689 Y117.925 E3.70853
G1 X138.383 Y118.92 E3.78721
G1 X138.594 Y119.258 E3.81305
G1 X139.184 Y120.321 E3.8919
G1 X139.358 Y120.677 E3.9176
G1 X139.837 Y121.794 E3.99643
G1 X139.975 Y122.166 E4.02216
G1 X140.338 Y123.326 E4.10099
G1 X140.435 Y123.702 E4.12618
G1 X140.681 Y124.893 E4.20505
G1 X140.742 Y125.287 E4.23091
G1 X140.865 Y126.496 E4.30973
G1 X140.885 Y126.891 E4.33538
G1 X140.885 Y128.107 E4.41425
G1 X140.865 Y128.502 E4.4399
G1 X140.742 Y129.711 E4.51872
G1 X140.682 Y130.104 E4.5445
G1 X140.436 Y131.297 E4.6235
G1 X140.338 Y131.673 E4.6487
G1 X139.976 Y132.831 E4.72739
G1 X139.838 Y133.204 E4.75319
G1 X139.359 Y134.321 E4.83201
G1 X139.186 Y134.675 E4.85757
G1 X138.596 Y135.739 E4.93647
G1 X138.383 Y136.08 E4.96255
G1 X137.688 Y137.076 E5.04132
G1 X137.451 Y137.382 E5.06642
G1 X136.66 Y138.305 E5.14526
G1 X136.382 Y138.597 E5.17141
G1 X135.498 Y139.435 E5.25041
G1 X135.202 Y139.689 E5.27571
G1 X134.242 Y140.432 E5.35444
G1 X133.923 Y140.655 E5.37969
G1 X132.893 Y141.299 E5.45847
G1 X132.538 Y141.496 E5.4848
G1 X131.446 Y142.03 E5.56364
G1 X131.09 Y142.182 E5.58875
G1 X129.948 Y142.606 E5.66775
G1 X129.569 Y142.725 E5.69352
G1 X128.395 Y143.029 E5.77217
G1 X128.006 Y143.109 E5.79793
G1 X126.802 Y143.293 E5.87692
G1 X126.412 Y143.333 E5.90235
G1 X125.199 Y143.395 E5.98113
G1 X124.801 Y143.395 E6.00694
G1 X123.588 Y143.333 E6.08571
G1 X123.198 Y143.293 E6.11114
G1 X121.994 Y143.109 E6.19014
G1 X121.605 Y143.029 E6.21589
G1 X120.431 Y142.725 E6.29455
G1 X120.052 Y142.606 E6.32031
G1 X118.91 Y142.182 E6.39932
G1 X118.554 Y142.03 E6.42442
G1 X117.462 Y141.496 E6.50326
G1 X117.107 Y141.299 E6.5296
G1 X116.077 Y140.655 E6.60838
G1 X115.758 Y140.432 E6.63362
G1 X114.798 Y139.689 E6.71236
G1 X114.502 Y139.435 E6.73765
G1 X113.618 Y138.597 E6.81666
G1 X113.34 Y138.305 E6.8428
G1 X112.549 Y137.382 E6.92164
G1 X112.312 Y137.076 E6.94675
G1 X111.617 Y136.08 E7.02551
G1 X111.404 Y135.739 E7.05159
G1 X110.814 Y134.675 E7.1305
G1 X110.641 Y134.321 E7.15605
G1 X110.162 Y133.204 E7.23488
G1 X110.024 Y132.831 E7.26067
G1 X109.662 Y131.673 E7.33936
G1 X109.564 Y131.297 E7.36456
G1 X109.318 Y130.104 E7.44357
G1 X109.258 Y129.711 E7.46935
G1 X109.135 Y128.504 E7.54804
G1 X109.115 Y128.109 E7.57369
G1 X109.115 Y126.893 E7.65256
G1 X109.135 Y126.498 E7.67821
G1 X109.258 Y125.289 E7.75702
G1 X109.318 Y124.896 E7.78281
G1 X109.564 Y123.703 E7.86181
G1 X109.662 Y123.327 E7.88701
G1 X110.024 Y122.169 E7.9657
G1 X110.162 Y121.796 E7.9915
G1 X110.641 Y120.679 E8.07032
G1 X110.814 Y120.325 E8.09588
G1 X111.404 Y119.261 E8.17478
G1 X111.671 Y118.843 E8.20695
G1 X111.372 Y118.749 E8.22728
G1 X110.23 Y118.326 E8.30627
G1 X109.87 Y118.172 E8.33166
G1 X108.779 Y117.638 E8.41044
G1 X108.428 Y117.443 E8.43648
G1 X107.397 Y116.799 E8.51532
G1 X107.077 Y116.576 E8.54062
G1 X106.115 Y115.832 E8.6195
G1 X105.815 Y115.574 E8.64516
G1 X104.934 Y114.737 E8.72397
G1 X104.66 Y114.45 E8.74971
G1 X103.868 Y113.527 E8.82859
G1 X103.629 Y113.217 E8.85398
G1 X102.934 Y112.22 E8.9328
G1 X102.722 Y111.88 E8.95879
G1 X102.133 Y110.817 E9.03761
G1 X101.96 Y110.466 E9.06299
G1 X101.48 Y109.348 E9.1419
G1 X101.342 Y108.974 E9.16775
G1 X100.98 Y107.817 E9.24638
G1 X100.882 Y107.437 E9.27183
G1 X100.637 Y106.244 E9.35082
G1 X100.577 Y105.854 E9.37641
G1 X100.454 Y104.647 E9.4551
G1 X100.434 Y104.252 E9.48075
G1 X100.434 Y103.036 E9.55962
G1 X100.454 Y102.641 E9.58527
G1 X100.577 Y101.432 E9.66409
G1 X100.637 Y101.042 E9.68968
G1 X100.882 Y99.849 E9.76867
G1 X100.98 Y99.47 E9.79406
G1 X101.342 Y98.312 E9.87275
G1 X101.481 Y97.936 E9.89875
G1 X101.961 Y96.819 E9.9776
G1 X102.132 Y96.47 E10.0028
G1 X102.721 Y95.406 E10.08168
G1 X102.935 Y95.063 E10.1079
G1 X103.63 Y94.067 E10.18667
G1 X103.868 Y93.759 E10.21192
G1 X104.66 Y92.836 E10.2908
M204 S300
G0 F9000 X105.055 Y93.175
M204 S100
G1 F2400 X105.293 Y92.924 E10.31323
G1 X106.176 Y92.086 E10.39218
G1 X106.434 Y91.865 E10.41422
G1 X107.394 Y91.122 E10.49295
G1 X107.672 Y90.928 E10.51494
G1 X108.703 Y90.284 E10.59378
G1 X109.006 Y90.116 E10.61625
G1 X110.097 Y89.581 E10.69506
G1 X110.411 Y89.446 E10.71722
G1 X111.553 Y89.023 E10.79621
G1 X111.878 Y88.921 E10.8183
G1 X113.053 Y88.616 E10.89703
G1 X113.391 Y88.547 E10.91941
G1 X114.594 Y88.363 E10.99834
G1 X114.935 Y88.328 E11.02057
G1 X116.148 Y88.267 E11.09934
G1 X116.488 Y88.267 E11.12139
G1 X117.701 Y88.328 E11.20017
G1 X118.042 Y88.363 E11.2224
G1 X119.246 Y88.547 E11.30139
G1 X119.584 Y88.616 E11.32377
G1 X120.759 Y88.921 E11.4025
G1 X121.085 Y89.024 E11.42467
G1 X122.226 Y89.447 E11.5036
G1 X122.538 Y89.581 E11.52562
G1 X123.628 Y90.115 E11.60434
G1 X123.932 Y90.284 E11.6269
G1 X124.964 Y90.929 E11.70583
G1 X125.24 Y91.121 E11.72764
G1 X126.201 Y91.864 E11.80642
G1 X126.461 Y92.086 E11.82859
G1 X127.344 Y92.924 E11.90755
G1 X127.582 Y93.175 E11.92998
G1 X128.374 Y94.098 E12.00886
G1 X128.583 Y94.367 E12.03096
G1 X129.276 Y95.362 E12.1096
G1 X129.457 Y95.654 E12.13188
G1 X130.047 Y96.717 E12.21073
G1 X130.198 Y97.025 E12.23298
G1 X130.677 Y98.142 E12.3118
G1 X130.797 Y98.465 E12.33415
G1 X131.16 Y99.625 E12.41298
G1 X131.244 Y99.95 E12.43476
G1 X131.49 Y101.141 E12.51363
G1 X131.543 Y101.483 E12.53608
G1 X131.666 Y102.692 E12.61489
G1 X131.683 Y103.034 E12.6371
G1 X131.683 Y104.25 E12.71597
G1 X131.666 Y104.592 E12.73818
G1 X131.543 Y105.801 E12.817
G1 X131.49 Y106.142 E12.83938
G1 X131.244 Y107.335 E12.91838
G1 X131.16 Y107.661 E12.94021
G1 X130.798 Y108.818 E13.01884
G1 X130.679 Y109.14 E13.04111
G1 X130.2 Y110.258 E13.11999
G1 X130.048 Y110.567 E13.14233
G1 X129.458 Y111.63 E13.22118
G1 X129.277 Y111.921 E13.2434
G1 X128.796 Y112.612 E13.29801
G1 X129.438 Y112.778 E13.34102
G1 X129.767 Y112.881 E13.36337
G1 X130.909 Y113.305 E13.44238
G1 X131.218 Y113.438 E13.4642
G1 X132.308 Y113.971 E13.54289
G1 X132.614 Y114.141 E13.5656
G1 X133.646 Y114.786 E13.64453
G1 X133.924 Y114.979 E13.66648
G1 X134.884 Y115.722 E13.74521
G1 X135.14 Y115.942 E13.7671
G1 X136.024 Y116.78 E13.8461
G1 X136.265 Y117.034 E13.86881
G1 X137.056 Y117.957 E13.94765
G1 X137.262 Y118.222 E13.96942
G1 X137.956 Y119.217 E14.0481
G1 X138.139 Y119.511 E14.07056
G1 X138.729 Y120.574 E14.14941
G1 X138.88 Y120.882 E14.17166
G1 X139.359 Y121.999 E14.25048
G1 X139.479 Y122.322 E14.27283
G1 X139.842 Y123.482 E14.35166
G1 X139.926 Y123.807 E14.37344
G1 X140.172 Y124.998 E14.45231
G1 X140.225 Y125.34 E14.47476
G1 X140.348 Y126.549 E14.55357
G1 X140.365 Y126.891 E14.57578
G1 X140.365 Y128.107 E14.65465
G1 X140.348 Y128.449 E14.67686
G1 X140.225 Y129.658 E14.75567
G1 X140.172 Y129.999 E14.77806
G1 X139.926 Y131.192 E14.85706
G1 X139.842 Y131.517 E14.87883
G1 X139.48 Y132.675 E14.95752
G1 X139.36 Y132.999 E14.97993
G1 X138.881 Y134.116 E15.05875
G1 X138.731 Y134.423 E15.08091
G1 X138.141 Y135.487 E15.15982
G1 X137.957 Y135.782 E15.18237
G1 X137.262 Y136.778 E15.26114
G1 X137.056 Y137.043 E15.28291
G1 X136.265 Y137.966 E15.36175
G1 X136.024 Y138.22 E15.38446
G1 X135.14 Y139.058 E15.46346
G1 X134.884 Y139.278 E15.48535
G1 X133.924 Y140.021 E15.56408
G1 X133.647 Y140.214 E15.58598
G1 X132.617 Y140.858 E15.66477
G1 X132.31 Y141.028 E15.68753
G1 X131.218 Y141.562 E15.76637
G1 X130.909 Y141.695 E15.78818
G1 X129.767 Y142.119 E15.86719
G1 X129.438 Y142.222 E15.88955
G1 X128.264 Y142.526 E15.9682
G1 X127.928 Y142.595 E15.99045
G1 X126.724 Y142.779 E16.06945
G1 X126.386 Y142.814 E16.09148
G1 X125.173 Y142.876 E16.17026
G1 X124.827 Y142.876 E16.1927
G1 X123.614 Y142.814 E16.27147
G1 X123.276 Y142.779 E16.29351
G1 X122.072 Y142.595 E16.37251
G1 X121.736 Y142.526 E16.39475
G1 X120.562 Y142.222 E16.47341
G1 X120.233 Y142.119 E16.49577
G1 X119.091 Y141.695 E16.57477
G1 X118.782 Y141.562 E16.59659
G1 X117.69 Y141.028 E16.67543
G1 X117.383 Y140.858 E16.69819
G1 X116.353 Y140.214 E16.77698
G1 X116.076 Y140.021 E16.79887
G1 X115.116 Y139.278 E16.87761
G1 X114.86 Y139.058 E16.8995
G1 X113.976 Y138.22 E16.9785
G1 X113.735 Y137.966 E17.00121
G1 X112.944 Y137.043 E17.08005
G1 X112.738 Y136.778 E17.10182
G1 X112.043 Y135.782 E17.18059
G1 X111.859 Y135.487 E17.20314
G1 X111.269 Y134.423 E17.28204
G1 X111.119 Y134.116 E17.3042
G1 X110.64 Y132.999 E17.38303
G1 X110.52 Y132.675 E17.40544
G1 X110.158 Y131.517 E17.48413
G1 X110.074 Y131.192 E17.5059
G1 X109.828 Y129.999 E17.5849
G1 X109.775 Y129.659 E17.60722
G1 X109.652 Y128.452 E17.68591
G1 X109.635 Y128.109 E17.70818
G1 X109.635 Y126.893 E17.78705
G1 X109.652 Y126.551 E17.80926
G1 X109.775 Y125.342 E17.88807
G1 X109.828 Y125.001 E17.91046
G1 X110.074 Y123.808 E17.98946
G1 X110.158 Y123.483 E18.01123
G1 X110.52 Y122.325 E18.08992
G1 X110.64 Y122.001 E18.11233
G1 X111.119 Y120.884 E18.19115
G1 X111.269 Y120.577 E18.21331
G1 X111.859 Y119.513 E18.29222
G1 X112.043 Y119.218 E18.31477
G1 X112.522 Y118.531 E18.36909
G1 X111.878 Y118.364 E18.41224
G1 X111.553 Y118.262 E18.43433
G1 X110.411 Y117.839 E18.51332
G1 X110.099 Y117.705 E18.53534
G1 X109.008 Y117.171 E18.61412
G1 X108.703 Y117.002 E18.63673
G1 X107.672 Y116.358 E18.71557
G1 X107.395 Y116.165 E18.73747
G1 X106.433 Y115.421 E18.81635
G1 X106.173 Y115.197 E18.8386
G1 X105.292 Y114.36 E18.91742
G1 X105.055 Y114.111 E18.93971
G1 X104.263 Y113.188 E19.01859
G1 X104.055 Y112.92 E19.0406
G1 X103.36 Y111.923 E19.11942
G1 X103.177 Y111.628 E19.14194
G1 X102.588 Y110.565 E19.22076
G1 X102.438 Y110.26 E19.2428
G1 X101.958 Y109.142 E19.32171
G1 X101.838 Y108.818 E19.34412
G1 X101.476 Y107.661 E19.42275
G1 X101.391 Y107.332 E19.44478
G1 X101.146 Y106.139 E19.52377
G1 X101.094 Y105.802 E19.54589
G1 X100.971 Y104.595 E19.62458
G1 X100.954 Y104.252 E19.64685
G1 X100.954 Y103.036 E19.72572
G1 X100.971 Y102.694 E19.74793
G1 X101.094 Y101.485 E19.82674
G1 X101.146 Y101.147 E19.84892
G1 X101.391 Y99.954 E19.92791
G1 X101.476 Y99.626 E19.94989
G1 X101.838 Y98.468 E20.02858
G1 X101.959 Y98.142 E20.05113
G1 X102.439 Y97.025 E20.12998
G1 X102.587 Y96.722 E20.15185
G1 X103.176 Y95.658 E20.23073
G1 X103.361 Y95.361 E20.25342
G1 X104.056 Y94.365 E20.33219
G1 X104.263 Y94.098 E20.3541
G1 X105.055 Y93.175 E20.43298
M204 S300
G0 F9000 X105.45 Y93.514
M204 S100
G1 F2400 X105.651 Y93.302 E20.45193
G1 X106.534 Y92.464 E20.53089
G1 X106.753 Y92.276 E20.54961
G1 X107.713 Y91.533 E20.62834
G1 X107.948 Y91.369 E20.64692
G1 X108.979 Y90.725 E20.72577
G1 X109.235 Y90.583 E20.74475
G1 X110.326 Y90.048 E20.82356
G1 X110.592 Y89.934 E20.84233
G1 X111.734 Y89.511 E20.92132
G1 X112.008 Y89.425 E20.93994
G1 X113.183 Y89.12 E21.01867
G1 X113.47 Y89.061 E21.03768
G1 X114.673 Y88.877 E21.11661
G1 X114.961 Y88.848 E21.13538
G1 X116.174 Y88.787 E21.21415
G1 X116.462 Y88.787 E21.23283
G1 X117.675 Y88.848 E21.3116
G1 X117.963 Y88.877 E21.33038
G1 X119.167 Y89.061 E21.40937
G1 X119.454 Y89.12 E21.42837
G1 X120.629 Y89.425 E21.50711
G1 X120.904 Y89.511 E21.52579
G1 X122.045 Y89.934 E21.60472
G1 X122.309 Y90.048 E21.62337
G1 X123.399 Y90.582 E21.70209
G1 X123.657 Y90.725 E21.72122
G1 X124.689 Y91.37 E21.80015
G1 X124.922 Y91.532 E21.81856
G1 X125.883 Y92.275 E21.89734
G1 X126.103 Y92.464 E21.91615
G1 X126.986 Y93.302 E21.99511
G1 X127.187 Y93.514 E22.01405
G1 X127.979 Y94.437 E22.09293
G1 X128.156 Y94.664 E22.1116
G1 X128.849 Y95.659 E22.19025
G1 X129.003 Y95.906 E22.20913
G1 X129.593 Y96.969 E22.28798
G1 X129.721 Y97.23 E22.30683
G1 X130.2 Y98.347 E22.38566
G1 X130.3 Y98.62 E22.40451
G1 X130.663 Y99.78 E22.48334
G1 X130.735 Y100.055 E22.50178
G1 X130.981 Y101.246 E22.58066
G1 X131.025 Y101.536 E22.59968
G1 X131.148 Y102.745 E22.6785
G1 X131.163 Y103.034 E22.69727
G1 X131.163 Y104.25 E22.77613
G1 X131.148 Y104.539 E22.7949
G1 X131.025 Y105.748 E22.87372
G1 X130.981 Y106.037 E22.89268
G1 X130.735 Y107.23 E22.97168
G1 X130.664 Y107.506 E22.99016
G1 X130.302 Y108.663 E23.06879
G1 X130.201 Y108.935 E23.08761
G1 X129.722 Y110.053 E23.1665
G1 X129.594 Y110.315 E23.18541
G1 X129.004 Y111.378 E23.26426
G1 X128.85 Y111.624 E23.28308
G1 X128.156 Y112.621 E23.36187
G1 X127.909 Y112.931 E23.38758
G1 X128.134 Y112.977 E23.40247
G1 X129.308 Y113.281 E23.48112
G1 X129.586 Y113.369 E23.50004
G1 X130.728 Y113.793 E23.57904
G1 X130.989 Y113.905 E23.59746
G1 X132.079 Y114.438 E23.67616
G1 X132.339 Y114.582 E23.69543
G1 X133.371 Y115.227 E23.77436
G1 X133.605 Y115.39 E23.79286
G1 X134.565 Y116.133 E23.87159
G1 X134.783 Y116.319 E23.89018
G1 X135.667 Y117.157 E23.96918
G1 X135.871 Y117.372 E23.9884
G1 X136.662 Y118.295 E24.06724
G1 X136.836 Y118.52 E24.08569
G1 X137.53 Y119.515 E24.16437
G1 X137.685 Y119.763 E24.18333
G1 X138.275 Y120.826 E24.26219
G1 X138.403 Y121.087 E24.28104
G1 X138.882 Y122.204 E24.35987
G1 X138.982 Y122.477 E24.37872
G1 X139.345 Y123.637 E24.45755
G1 X139.417 Y123.912 E24.47599
G1 X139.663 Y125.103 E24.55487
G1 X139.707 Y125.393 E24.57389
G1 X139.83 Y126.602 E24.65271
G1 X139.845 Y126.891 E24.67148
G1 X139.845 Y128.107 E24.75034
G1 X139.83 Y128.396 E24.76911
G1 X139.707 Y129.605 E24.84793
G1 X139.663 Y129.894 E24.86689
G1 X139.417 Y131.087 E24.94589
G1 X139.346 Y131.362 E24.96431
G1 X138.984 Y132.52 E25.043
G1 X138.883 Y132.794 E25.06194
G1 X138.404 Y133.911 E25.14077
G1 X138.276 Y134.171 E25.15956
G1 X137.686 Y135.235 E25.23847
G1 X137.53 Y135.485 E25.25758
G1 X136.835 Y136.481 E25.33635
G1 X136.662 Y136.705 E25.35471
G1 X135.871 Y137.628 E25.43355
